chains/solotestnet/logo.svg

<svg xmlns="http://www.w3.org/2000/svg" width="887" height="887" style="shape-rendering:geometricPrecision;text-rendering:geometricPrecision;image-rendering:optimizeQuality;fill-rule:evenodd;clip-rule:evenodd"><path fill="#111" d="M437.5-.5h12q235.253 9.967 367.5 203 58.493 91.729 69.5 200v83q-23.13 199.578-183 319.5-95.928 68.064-213 81.5h-93Q210.636 863.463 93 717.5 8.215 606.418-.5 466.5v-45Q17.556 193.915 206.5 68 312.75 2.332 437.5-.5" style="opacity:.997"/><path fill="#fbebd7" d="M440.5 91.5q2.835-.306 4.5 2 77.331 104.686 108 232 1.325 3.903 4.5 6.5 126.735 29.705 232 105 3.74 2.349 6 6-2.48 4.481-7 7-102.704 74.772-227 104a25.6 25.6 0 0 0-6.5 5.5q-29.646 128.764-107 235-3.5 4-7 0-58.383-79.247-91-173a6153 6153 0 0 1-19.5-64.5q-129.87-30.077-237-108-1.61-1.108-2-3a35.7 35.7 0 0 1 10-10q101.322-72.398 223-102 3.554-.804 6-3.5 31.226-130.921 110-239" style="opacity:1"/><path fill="#121212" d="M441.5 196.5q8.151 10.466 13.5 23a675 675 0 0 1 34 86 60.5 60.5 0 0 1 3.5 16 656 656 0 0 0-69-1.5q-28.06 7.589-23.5 36.5 4.75 14.75 19.5 19.5 111.119-1.7 214 40a753 753 0 0 1 56 26q1.816 1.34 0 2.5-57.71 31.24-121 49-3.582-.318-3-4a341.5 341.5 0 0 0 1.5-55q-5.664-15.164-21.5-18.5l-164-1q-2.75-.75-3.5-3.5a288 288 0 0 1 5-49q16.887-87.415 58.5-166m-128 199h7a449 449 0 0 0-1.5 56q3.52 13.815 16.5 19.5a7096 7096 0 0 0 167 2q3.646.443 5.5 3.5a130.6 130.6 0 0 1-1 29q-15.25 98.5-62.5 186a14.8 14.8 0 0 1-3.5-4q-30.402-57.293-46.5-120 34.491 1.397 69 .5 29.953-8.141 22.5-38.5-6.243-14.24-21.5-17.5-143.299 1.8-269-66.5 56.21-31.731 118-50" style="opacity:1"/></svg>

<?xml version="1.0" encoding="UTF-8"?>
<!DOCTYPE svg PUBLIC "-//W3C//DTD SVG 1.1//EN" "http://www.w3.org/Graphics/SVG/1.1/DTD/svg11.dtd">
<svg xmlns="http://www.w3.org/2000/svg" version="1.1" width="887px" height="887px" style="shape-rendering:geometricPrecision; text-rendering:geometricPrecision; image-rendering:optimizeQuality; fill-rule:evenodd; clip-rule:evenodd" xmlns:xlink="http://www.w3.org/1999/xlink">
<g><path style="opacity:0.997" fill="#111111" d="M 437.5,-0.5 C 441.5,-0.5 445.5,-0.5 449.5,-0.5C 606.335,6.14475 728.835,73.8114 817,202.5C 855.996,263.653 879.162,330.319 886.5,402.5C 886.5,430.167 886.5,457.833 886.5,485.5C 871.08,618.552 810.08,725.052 703.5,805C 639.548,850.376 568.548,877.543 490.5,886.5C 459.5,886.5 428.5,886.5 397.5,886.5C 272.924,871.142 171.424,814.808 93,717.5C 36.4763,643.445 5.30966,559.779 -0.5,466.5C -0.5,451.5 -0.5,436.5 -0.5,421.5C 11.5373,269.777 80.5373,151.943 206.5,68C 277.333,24.221 354.333,1.38772 437.5,-0.5 Z"/></g>
<g><path style="opacity:1" fill="#fbebd7" d="M 440.5,91.5 C 442.39,91.2965 443.89,91.9632 445,93.5C 496.554,163.291 532.554,240.624 553,325.5C 553.883,328.102 555.383,330.269 557.5,332C 641.99,351.803 719.323,386.803 789.5,437C 791.993,438.566 793.993,440.566 795.5,443C 793.846,445.987 791.513,448.321 788.5,450C 720.031,499.848 644.364,534.514 561.5,554C 559.04,555.458 556.873,557.291 555,559.5C 535.236,645.343 499.569,723.676 448,794.5C 445.667,797.167 443.333,797.167 441,794.5C 402.078,741.669 371.745,684.002 350,621.5C 343.37,599.995 336.87,578.495 330.5,557C 243.92,536.949 164.92,500.949 93.5,449C 92.4258,448.261 91.7591,447.261 91.5,446C 94.1542,442.012 97.4876,438.679 101.5,436C 169.048,387.735 243.381,353.735 324.5,334C 326.869,333.464 328.869,332.297 330.5,330.5C 351.317,243.219 387.984,163.553 440.5,91.5 Z"/></g>
<g><path style="opacity:1" fill="#121212" d="M 441.5,196.5 C 446.934,203.477 451.434,211.144 455,219.5C 468.292,247.374 479.626,276.04 489,305.5C 490.893,310.678 492.06,316.012 492.5,321.5C 469.528,319.789 446.528,319.289 423.5,320C 404.793,325.059 396.96,337.226 400,356.5C 403.167,366.333 409.667,372.833 419.5,376C 493.579,374.867 564.913,388.2 633.5,416C 652.506,423.893 671.173,432.56 689.5,442C 690.711,442.893 690.711,443.726 689.5,444.5C 651.026,465.327 610.693,481.66 568.5,493.5C 566.112,493.288 565.112,491.955 565.5,489.5C 567.479,471.218 567.979,452.885 567,434.5C 563.224,424.391 556.057,418.224 545.5,416C 490.833,415.667 436.167,415.333 381.5,415C 379.667,414.5 378.5,413.333 378,411.5C 378.263,395.059 379.929,378.726 383,362.5C 394.258,304.223 413.758,248.89 441.5,196.5 Z"/></g>
<g><path style="opacity:1" fill="#121212" d="M 313.5,395.5 C 315.833,395.5 318.167,395.5 320.5,395.5C 318.835,414.126 318.335,432.793 319,451.5C 321.347,460.71 326.847,467.21 335.5,471C 391.109,472.321 446.775,472.988 502.5,473C 504.931,473.295 506.764,474.462 508,476.5C 508.744,486.203 508.411,495.87 507,505.5C 496.833,571.167 476,633.167 444.5,691.5C 443.108,690.395 441.941,689.061 441,687.5C 420.732,649.305 405.232,609.305 394.5,567.5C 417.494,568.431 440.494,568.598 463.5,568C 483.469,562.573 490.969,549.739 486,529.5C 481.838,520.007 474.671,514.174 464.5,512C 368.967,513.2 279.301,491.033 195.5,445.5C 232.973,424.346 272.306,407.679 313.5,395.5 Z"/></g>
</svg>
